X:1
T:Words of Institution (The Verba)
C:1 Corinthians 11:23-25; Matthew 26:26-28; chant setting traditional
S:Traditional Lutheran liturgy; public domain
M:C
L:1/4
K:C
%% Recitation on G with mediant and final cadences (two clauses)
G G G G | G G G G | G G G G | G G G G |
G G G G | G G G G | G G F G | G2 E2 | D4 ||
G G G G | G G G G | G G G G | G G G G |
G G G G | G G G G | G G F G | G2 E2 | D4 ||

## Musiquik
&0VVVV.VVVV.VVVV.VVVV.VVVV.VVVV.VVUV.fd.s)VVVV.VVVV.VVVV.VVVV.VVVV.VVVV.VVUV.fd.s)

#Lyrics
Our Lord Jesus Christ, on the night when He was betrayed, took bread, and when He had given thanks, He broke it and gave it to the disciples and said: "Take, eat; this is My body, which is given for you. This do in remembrance of Me."  In the same way also He took the cup after supper, and when He had given thanks, He gave it to them, saying: "Drink of it, all of you; this cup is the new testament in My blood, which is shed for you for the forgiveness of sins. This do, as often as you drink it, in remembrance of Me."

#Citations and References

Words: 1 Corinthians 11:23-25; Matthew 26:26-28; Luther's Small Catechism; public domain.
Music: 'Verba' Traditional chant recitation tone; ancient, public domain.
Setting: Lutheran Service Book (LSB), Divine Service; traditional.
copyright: public domain.

https://openhymnal.org
